src/images/single-assets/DAR.svg

<svg width="96" height="96" viewBox="0 0 96 96" fill="none" xmlns="http://www.w3.org/2000/svg">
    <path
        d="M48 96C74.5097 96 96 74.5097 96 48C96 21.4903 74.5097 0 48 0C21.4903 0 0 21.4903 0 48C0 74.5097 21.4903 96 48 96Z"
        fill="url(#paint0_linear_1454)" />
    <path fill-rule="evenodd" clip-rule="evenodd"
        d="M47.9078 15.9375C56.4366 15.9375 64.6162 19.3256 70.647 25.3563C76.6778 31.3871 80.0659 39.5666 80.0659 48.0954C80.0665 49.3858 79.9902 50.675 79.8374 51.9562C79.8321 52.0001 79.8214 52.0875 79.8214 52.0875C79.8214 52.0875 68.0811 41.25 47.9999 41.25C28.2936 41.25 16.0172 52.2615 16.0172 52.2615C16.0172 52.2615 15.9985 52.1213 15.9906 52.0509C15.4343 47.529 15.8443 42.9405 17.1937 38.5889C18.5431 34.2373 20.8011 30.2218 23.8182 26.808C26.8353 23.3942 30.5429 20.6599 34.6957 18.7859C38.8485 16.912 43.3518 15.9411 47.9078 15.9375Z"
        fill="white" />
    <path fill-rule="evenodd" clip-rule="evenodd"
        d="M48.0009 47.8125C56.464 47.8105 64.7608 50.1624 71.9639 54.6053C79.167 59.0483 84.9923 65.4071 88.7887 72.9709L88.8596 73.1124C88.8596 73.1124 87.1436 76.1047 83.8944 79.7899C81.8692 82.09 79.6193 84.1821 77.1782 86.0349C77.1782 86.0349 77.1624 85.9717 77.1544 85.9412C72.4736 67.4576 55.2956 63 48 63C40.9428 63 23.3861 66.8919 18.669 85.8261C18.6585 85.8679 18.6378 85.9517 18.6378 85.9517C16.235 84.0792 14.0028 81.9976 11.9672 79.7314C10.1642 77.6851 8.54184 75.4864 7.11841 73.1601C7.11841 73.1601 7.14766 73.1012 7.16247 73.0719C10.9487 65.4816 16.7759 59.097 23.9898 54.635C31.2037 50.1731 39.5186 47.8105 48.0009 47.8125Z"
        fill="white" />
    <defs>
        <linearGradient id="paint0_linear_1454" x1="48" y1="0" x2="48" y2="96" gradientUnits="userSpaceOnUse">
            <stop stop-color="#74247D" />
            <stop offset="1" stop-color="#1C0B2D" />
        </linearGradient>
    </defs>
</svg>

<svg xmlns="http://www.w3.org/2000/svg" width="96" height="96" fill="none"><path fill="url(#a)" d="M48 96c26.51 0 48-21.49 48-48S74.51 0 48 0 0 21.49 0 48s21.49 48 48 48"/><path fill="#fff" fill-rule="evenodd" d="M47.908 15.938a32.16 32.16 0 0 1 32.158 32.157 33 33 0 0 1-.245 3.992S68.081 41.25 48 41.25c-19.706 0-31.983 11.011-31.983 11.011l-.026-.21a32.184 32.184 0 0 1 31.917-36.113" clip-rule="evenodd"/><path fill="#fff" fill-rule="evenodd" d="M48 47.813A45.63 45.63 0 0 1 88.79 72.97l.07.141s-1.715 2.993-4.965 6.678a46 46 0 0 1-6.716 6.245l-.024-.094C72.474 67.458 55.296 63 48 63c-7.057 0-24.614 3.892-29.331 22.826l-.031.126a51.6 51.6 0 0 1-6.67-6.22 47 47 0 0 1-4.85-6.572l.044-.088a45.63 45.63 0 0 1 40.839-25.26" clip-rule="evenodd"/><defs><linearGradient id="a" x1="48" x2="48" y1="0" y2="96" gradientUnits="userSpaceOnUse"><stop stop-color="#74247D"/><stop offset="1" stop-color="#1C0B2D"/></linearGradient></defs></svg>
